packages/icon/src/svg/arrow-right.icon.svg

<svg width="24" height="24" viewBox="0 0 24 24" fill="none" xmlns="http://www.w3.org/2000/svg">
<path fill-rule="evenodd" clip-rule="evenodd" d="M12.8636 18.0093C12.6683 17.814 12.6683 17.4974 12.8636 17.3022L17.1658 13H3.5C3.22386 13 3 12.7761 3 12.5V11.5C3 11.2238 3.22386 11 3.5 11H17.168L12.8636 6.69555C12.6683 6.50029 12.6683 6.1837 12.8636 5.98844L13.5707 5.28133C13.7659 5.08607 14.0825 5.08607 14.2778 5.28133L20.9953 11.9989L14.2778 18.7164C14.0825 18.9116 13.7659 18.9116 13.5707 18.7164L12.8636 18.0093Z" fill="white"/>
</svg>

<svg aria-label="arrow right icon" viewBox="0 0 24 24"><path fill-rule="evenodd" clip-rule="evenodd" d="M12.864 18.01a.5.5 0 010-.708L17.166 13H3.5a.5.5 0 01-.5-.5v-1a.5.5 0 01.5-.5h13.668l-4.304-4.304a.5.5 0 010-.708l.707-.707a.5.5 0 01.707 0L20.995 12l-6.717 6.717a.5.5 0 01-.707 0l-.707-.707z"/></svg>
